modules/hawcons-filled/icons/icon-97-folder-download.svg

<?xml version="1.0" encoding="UTF-8" standalone="no"?>
<svg width="32px" height="32px" viewBox="0 0 32 32" version="1.1" xmlns="http://www.w3.org/2000/svg" xmlns:xlink="http://www.w3.org/1999/xlink" xmlns:sketch="http://www.bohemiancoding.com/sketch/ns">
    <!-- Generator: Sketch 3.0.3 (7891) - http://www.bohemiancoding.com/sketch -->
    <title>icon 97 folder download</title>
    <desc>Created with Sketch.</desc>
    <defs></defs>
    <g id="Page-1" stroke="none" stroke-width="1" fill="none" fill-rule="evenodd" sketch:type="MSPage">
        <g id="icon-97-folder-download" sketch:type="MSArtboardGroup" fill="#929292">
            <path d="M16,14 L30,14 L30,25.0049107 C30,26.1073772 29.1075748,27 28.0067126,27 L2.99328744,27 C1.89971268,27 1,26.1085295 1,25.008845 L1,14 L15,14 L15,23.049999 L11.75,19.799999 L11,20.549999 L15.5,25.049999 L20,20.549999 L19.25,19.799999 L16,23.049999 L16,14 L16,14 Z M1,13 L1,6.991155 C1,5.88967395 1.89666625,5 3.00276013,5 L14,5 L16,9 L27.9941413,9 C29.1029399,9 30,9.8932319 30,10.9950893 L30,13 L1,13 L1,13 L1,13 Z" id="folder-download" sketch:type="MSShapeGroup"></path>
        </g>
    </g>
</svg>

<svg width="32" height="32" xmlns="http://www.w3.org/2000/svg"><path d="M16 14h14v11.005A1.994 1.994 0 0 1 28.007 27H2.993A1.997 1.997 0 0 1 1 25.009V14h14v9.05l-3.25-3.25-.75.75 4.5 4.5 4.5-4.5-.75-.75L16 23.05V14zM1 13V6.991C1 5.89 1.897 5 3.003 5H14l2 4h11.994A2 2 0 0 1 30 10.995V13H1z" fill="#929292" fill-rule="evenodd"/></svg>
